!!!COM:	Josquin des Pres?
**kern	**kern
*part2	*part1
*staff2	*staff1
*clefF4	*clefGv2
*k[b-]	*k[b-]
*M3/1	*M3/1
=1-	=1-
1G	1g
2A	2f
2G	1g
2B-	.
2c	2e
=2	=2
1d	2f
.	1d
2r	.
2G	2.g
2B-	.
.	4f
2c	4e
.	4d
=3	=3
2.d	2.f
4c	4e
2A	2c
1B-	1d
4A	4c
4G	4B-
=4	=4
1F	2.A
.	4B-
2r	2c
2D	2d
2E	2G
2F	[2d
=5	=5
2.G	4d]
.	4c
.	2d
4F	.
2G	2e
2A	2f
2B-	2.g
[2c	.
.	4f
=6	=6
4c]	2a
4B-	.
2c	1a
2d	.
1d	2f
.	1e
2c	.
=7	=7
2d	1d
2G	.
2d	2r
2B-	2d
1A	2e
.	2f
=8	=8
2G	2.g
2.B-	.
.	4f
.	2d
4A	.
1A	2c
.	1B-
2G	.
=9	=9
2A	2A
1B-	1d
2A	2c
2G	2B-
4F	4A
4E	4G
=10	=10
2D	1F
1d	.
.	2r
2c	2F
2B-	2G
4A	2B-
4G	.
=11	=11
1F	2A
.	1d
1B-	.
.	2G
2c	2A
[2d	2B-
=12	=12
2d]	1G
2G	.
2A	2F
2B-	2.G
1G	.
.	4A
.	4B-
.	4c
=13	=13
2F	2A
2.G	2G
.	1d
4A	.
4B-	.
4c	.
2A	2c
2G	[2d
=14	=14
1d	4d]
.	4e
.	4f
.	4g
2c	2e
2d	1d
2G	.
[2d	2G
=15	=15
2d]	2.d
2G	.
.	4e
2.d	4f
.	4g
.	2.a
4c	.
2d	.
.	4f
2G	4g
.	4a
=16	=16
2.d	2b-
.	2.a
4c	.
2d	.
.	4g
2B-	1g
1A	.
.	2f
=17	=17
0.G	0.g
==	==
*-	*-
